tools/download-figma-icons/icons/outlined-medium/attention.svg

<svg width="25" height="24" viewBox="0 0 25 24" fill="none" xmlns="http://www.w3.org/2000/svg">
<path d="M12.752 8.25H11.252C11.0345 8.25 10.832 8.34 10.6895 8.505C10.547 8.6625 10.4795 8.88 10.5095 9.0975L11.252 15.0975C11.297 15.4725 11.6195 15.7575 11.9945 15.7575C12.3695 15.7575 12.692 15.4725 12.737 15.0975L13.4945 9.0975C13.5245 8.88 13.457 8.67 13.3145 8.505C13.172 8.34 12.9695 8.25 12.752 8.25Z" fill="black"/>
<path d="M13.127 17.625C13.127 18.2463 12.6233 18.75 12.002 18.75C11.3807 18.75 10.877 18.2463 10.877 17.625C10.877 17.0037 11.3807 16.5 12.002 16.5C12.6233 16.5 13.127 17.0037 13.127 17.625Z" fill="black"/>
<path fill-rule="evenodd" clip-rule="evenodd" d="M23.672 18.9375L14.0345 2.6625C13.607 1.935 12.842 1.5 12.002 1.5C11.162 1.5 10.397 1.935 9.96947 2.6625L0.331974 18.9375C-0.103026 19.68 -0.110526 20.565 0.309474 21.3075C0.736974 22.0575 1.50197 22.5 2.36447 22.5H21.632C22.4945 22.5 23.2595 22.0575 23.687 21.3075C24.1145 20.5575 24.107 19.6725 23.6645 18.9375H23.672ZM22.3895 20.565C22.3145 20.6925 22.0895 21 21.6395 21H2.36447C1.91447 21 1.68947 20.6925 1.61447 20.565C1.53947 20.4375 1.38947 20.0925 1.61447 19.7025L11.2595 3.42C11.4845 3.0375 11.852 3 12.002 3C12.152 3 12.5195 3.0375 12.7445 3.42L22.382 19.7025C22.6145 20.0925 22.4645 20.4375 22.382 20.565H22.3895Z" fill="black"/>
</svg>

<svg width="25" height="24" viewBox="0 0 25 24" fill="none" xmlns="http://www.w3.org/2000/svg"><path d="M23.672 18.938 14.034 2.663A2.342 2.342 0 0 0 12.002 1.5c-.84 0-1.605.435-2.033 1.163L.332 18.937a2.35 2.35 0 0 0-.023 2.37A2.333 2.333 0 0 0 2.364 22.5h19.268c.862 0 1.627-.442 2.055-1.192.427-.75.42-1.636-.023-2.37h.008Zm-1.282 1.627a.859.859 0 0 1-.75.435H2.364a.859.859 0 0 1-.75-.435.845.845 0 0 1 0-.863L11.26 3.42a.84.84 0 0 1 .743-.42.84.84 0 0 1 .742.42l9.638 16.282a.811.811 0 0 1 0 .863h.008Z" fill="currentColor"/><path d="M12.752 8.25h-1.5c-.218 0-.42.09-.563.255a.735.735 0 0 0-.18.592l.743 6a.75.75 0 0 0 .742.66.752.752 0 0 0 .743-.66l.757-6a.743.743 0 0 0-.18-.592.735.735 0 0 0-.562-.255Zm-.75 10.5a1.125 1.125 0 1 0 0-2.25 1.125 1.125 0 0 0 0 2.25Z" fill="currentColor"/></svg>
